X:1
T:Title
%%score { ( 1 3 ) | 2 }
L:1/8
Q:1/4=100
M:4/4
K:C
V:1 treble nm="Grand Piano"
V:3 treble 
V:2 bass 
V:1
 [A,C]2 [A,CF]>[CFA] [CFAc]2 [CFA]>[A,CF] | [A,C]2 [^G,B,D]>[G,B,F] [A,C]4 | %2
w: Victor~H.~Benke * * * * *||
 [A,CF]2 [A,CFA]>c e2 d>[A,FA] | [E_Bc]2 [CEB]>[CE^F] z2 ._B,2 | %4
w: ||
 [A,C]2 [A,CF]>[CFA] [CFAc]2 [A,CFA]>[A,CF] | z4 [CEG]4 | [B,DG]2 [A,DA][B,GB] [CGc] [CGc]2 [CGc] | %7
w: |||
 z4 [EGc]4 | c>d [FAc]2 .[A,CFA]>_B .[A,CFA]2 | z4 G4 | [CEG]>A [CEG]2 [E_Bd]>e [EBd]2 | z4 c4 | %12
w: |||||
 .[A,CFA]2 .[A,CFA]>A [_EFc]2 .[A,EFA]>F | [DF]2 [DF_B]>d [FAc]4 | %14
w: ||
 [CFAc]2 [CEG_Bc]>[CEGB] [FAcf] [CFAc]2 [A,CF][Q:1/4=99][Q:1/4=97] | %15
w: |
 [A,CFA]2 [B,FA]>[_B,CG] [A,CF]4[Q:1/4=96][Q:1/4=94][Q:1/4=93][Q:1/4=91][Q:1/4=90][Q:1/4=88][Q:1/4=87][Q:1/4=85][Q:1/4=84][Q:1/4=82][Q:1/4=81][Q:1/4=79][Q:1/4=78][Q:1/4=76] |] %16
w: |
V:2
 [F,,C,F,]2 [F,,C,F,]>[F,,C,F,] [F,,C,F,]2 [F,,C,F,]>[F,,C,F,] | %1
 [F,,C,F,]2 [F,,D,F,]>[F,,D,F,] F,,>A,, D,>C, | %2
 [F,,C,F,]2 [F,,C,]>[F,,C,A,FA] [F,,C,A,FA]2 [F,,C,A,FA]>[F,,C,] | %3
 [C,G,_B,]2 [C,G,B,]>[C,G,B,] .[C,G,B,]2 .[C,G,]2 | %4
 [F,,C,F,]2 [F,,C,F,]>[F,,C,F,] [F,,C,F,]2 [F,,C,]>[F,,C,] | %5
 [G,,E,G,]2 [G,,E,G,]>[G,,E,G,] [G,,E,G,]2 [G,,E,]2 | %6
 [G,,G,]2 [^F,,^F,][=F,,=F,] [E,,E,] [E,,E,]2 [_E,,_E,] | %7
 [D,,D,]2 [G,,G,]>[B,,B,] [C,C]_B,,A,,G,, | .[F,,C,A,FA]>[FA] .[F,,C,A,]2 .[F,,C,]>[DF] .[F,,C,]2 | %9
 .[G,,F,G,]2 .[G,,F,G,]2 .[G,,F,G,]2 .[G,,F,G,]2 | %10
 .[C,G,_B,]>[CE] .[C,G,B,]2 .[C,G,B,]>[K:treble][E_B][K:bass] .[C,G,B,]2 | %11
 .[F,,C,A,]2 .[F,,C,A,]>[F^G] .[F,,C,A,FA]2 .[F,,C,]2 | %12
 .[F,,C,]2 .[F,,C,]>[CF] .[F,,C,A,]2 .[F,,C,]>[C_E] | %13
 .[_B,,F,_B,]2 .[B,,F,B,]>[K:treble][F_B][K:bass] [C,A,C]4 | %14
 [A,,A,]2 [G,,G,]>[G,,G,] [F,,F,] [F,,F,]2 [F,,F,] | [C,,C,]2 [D,,D,]>[E,,E,] [F,,C,F,]4 |] %16
V:3
 x8 | x8 | x8 | z4 [CEG]4 | x8 | [CE]2 [CEB]>[CEA] z2 G,2 | x8 | [CFAc]2 [DFGB]>[DFG] z _B,A,G, | %8
 x8 | [B,DA]2 [B,DG]>[B,D] .[B,D]2 .[B,D]2 | x8 | [FAd]2 [FAc]>B z2 .[A,FA]2 | x8 | x8 | x8 | x8 |] %16

